packages/kaspersky-hexa-ui-icons/src/iconsSVGs/48/FileScan.svg

<svg xmlns="http://www.w3.org/2000/svg" width="48" height="48" fill="none" viewBox="0 0 48 48"><path fill="currentColor" fill-rule="evenodd" d="M6 2h27v7h7v26h2V7.59L34.41 0H4v48h31v-2H6zm29 1.41L38.59 7H35zm1.72 31.68-1.61 1.6-1.52-1.51c3.5769-4.3296 3.1222-10.7053-1.0328-14.4836s-10.5451-3.6266-14.5162.3446c-3.9712 3.9711-4.1228 10.3612-.3446 14.5162 3.7783 4.155 10.154 4.6097 14.4836 1.0328l1.51 1.52-1.6 1.61L40.36 48 45 43.36zM25.5 37c-4.6944 0-8.5-3.8056-8.5-8.5s3.8056-8.5 8.5-8.5 8.5 3.8056 8.5 8.5c-.0055 4.6921-3.8079 8.4945-8.5 8.5m9.41 2.72 1.81-1.81 5.45 5.45-1.81 1.81z" clip-rule="evenodd"/></svg>

<svg width="48" height="48" viewBox="0 0 48 48" fill="none" xmlns="http://www.w3.org/2000/svg">
<path fill-rule="evenodd" clip-rule="evenodd" d="M6 2H33V9H40V35H42V7.59L34.41 0H4V48H35V46H6V2ZM35 3.41L38.59 7H35V3.41ZM36.72 35.09L35.11 36.69L33.59 35.18C37.1669 30.8504 36.7122 24.4747 32.5572 20.6964C28.4022 16.9182 22.0121 17.0698 18.041 21.041C14.0698 25.0121 13.9182 31.4022 17.6964 35.5572C21.4747 39.7122 27.8504 40.1669 32.18 36.59L33.69 38.11L32.09 39.72L40.36 48L45 43.36L36.72 35.09ZM25.5 37C20.8056 37 17 33.1944 17 28.5C17 23.8056 20.8056 20 25.5 20C30.1944 20 34 23.8056 34 28.5C33.9945 33.1921 30.1921 36.9945 25.5 37ZM34.91 39.72L36.72 37.91L42.17 43.36L40.36 45.17L34.91 39.72Z"  fill="currentColor"/>
</svg>
